X:1
T:Мистический Хоръ
T:Цезарь А. Кюи, 1871
T:Adapted from Dante Alighieri, 1265-1321
T:Мистический Хор
T:Владимиру Васильевичу  Стасову На  тексть заимствованний из Дантова „Чистилища“
T:Public Domain
T:Public Domain
T:Public Domain
T:Public Domain
T:Public Domain
T:Public Domain
T:Public Domain
T:Public Domain
T:Public Domain
T:Public Domain
T:Public Domain
T:Public Domain
T:Public Domain
T:Public Domain
T:Public Domain
T:Public Domain
T:Public Domain
C:Цезарь Антонович Кюи
Z:Public Domain
%%score [ 1 ( 2 3 ) 4 ] { ( 5 7 10 ) | ( 6 8 9 ) }
L:1/8
Q:1/4=100
M:3/4
K:C
V:1 treble nm="Sopranos 1" snm="S. 1"
V:2 treble nm="Sopranos 2" snm="S. 2"
V:3 treble 
V:4 treble nm="Altos" snm="A."
V:5 treble nm="Piano" snm="Pno."
V:7 treble 
V:10 treble 
V:6 bass 
V:8 bass 
V:9 bass 
V:1
"^Andante" z6 | z6 | z6 | z6 |[Q:1/4=90] z6 |[Q:1/4=85] z6 |[Q:1/4=80] !fermata!z6 || %7
[Q:1/4=100]"^A tempo""^ТРЕТЬ ХОРА\nA third of \nthe choir" z4"^Мы   ис–то–ми–ли–ся  скорбь –ю  свя    –   то     –       –    ю. __________________                    Пол – ны       же    –   ла–ни–ем"!pp! A2- | %8
 A2 B2 c2 | B3 c B2 | e6 | e2 d4 |!<(! f6-!<)! | f2!>(! e4-!>)! | e6- | e2!ppp! z4 |!p! g4 c2- | %17
!<(! c2 (d2 e2)!<)! | e3 g f2- | f2!mf! e4- | %20
"^ви   –  деть  ли   –   ки    не – бес – ны  –  е, ______________________                                                                              Сла –  ву  Твор–" e2!>(! d2 B2-!>)! | %21
 B2 d2 c2 | A4 c2- | c2 B4- |!ppp! B6- | B2 z4 |"^A" z6 | z6 | z4!p! e2- | e3 d f2 | %30
"^– ца      и     свет    –      лый              рай. ________________                     Сла–ву Твор – ца    и ____________    свет  –  лый рай," f4 f2 | %31
!<(! (e2 d2) e2!<)! |!>(! f6-!>)! | f2 z4 |!p! f2 e2 d2 | e2 f4- | f2 (f3 d) | cd e2 z2 | z6 | z6 | %40
 z6 |"^ВЕСЬ ХОР\nWhole choir" z6 | %42
"^Здесь             по    –     ка  – я   –   ни   –   я                     чис   –    той         сле –"!p!"^B" A6 | %43
 B4!<(! B2!<)! | c4 c2 | d6 | f6 |!>(! d4 d2!>)! | %48
"^– зо     –        ю                      пре–гре–ше  –     ни–я смыть долж–ны   мы, чтоь от–во–рил–ся  нам свет – лый  ______     э  –"!>(! c6!>)! | %49
 B6 |!p! f2 e2 d2- | d3 e d2 | c2 B2 (A2- | A3 B) A2 | A2 B2!<(! c2!<)! | B3 c B2 | (c2 d2) (f2- | %57
!<(! f3 g) f2!<)! | %58
"^– демь, _______________________    свет –   лый    рай! _________________________      Скорбь       –     ю_______   свя   –  то – ю _____"!f! (a6- | %59
 a2 d2 c2) |!>(! B3 c B2-!>)! | B6- | B6- | B2 z2!pp! (E2- |"^C" E3 F) E2- | E2!<(! (^C2 D2)!<)! | %66
!>(! F2 E4-!>)! | %67
 E2"^_____    ис –то–ми–лись ________    мы.                                            Лишь в без ко-неч-но-е    дух                наш  стре  –   мит     –"!<(! ^C2 D2!<)! | %68
!>(! F2 (E4-!>)! | E2 ^F2) ^D2- |!>(! D4 z2!>)! |"^ТРЕТЬ ХОРА\nA third of \nthe choir" z6 | %72
!pp! A2 B2 c2 | B3 c B2 | e6 | e2 d4 |!<(! f6-!<)! | %77
 f2"^–  ся, ______________________            Ми  –  ра ____   же     –       ла  – ни –я, _____  страс     –       ти  зем –ны     –   я     чуж –  ды __"!>(! e4-!>)! | %78
 e6- | e2!ppp! z4 |!p!"^D" g4 c2- | c2 (d2 e2) | e3 g f2- | f2!mf! e4- | e2 d2 B2 | %85
!>(! (B2 d2) c2!>)! | A4 c2- | %87
"^___  нам. ____________________             Ско-роль для греш-ни-конь день про-свет-лень-я веч–но–ю  бла–гость–ю  ско-роль при–" c2!ppp! B4- | %88
 B6- | B2"^ВЕСЬ ХОР\nWhole choir" z4 |!pp!"^E" c2 B2 A2 | B3 c B2 | c2 B2 A2 | B4 A2 | e2 d2 c2 | %95
 d3 e d2 | e2 d2 c2 | %97
"^деть?        Скорбь        –       –       –        –       –          ю            свя     –      то       –     ю ______________________            ис     –     то  –"!<(! d6!<)! | %98
!mf!!<(! e6-!<)! |!<(! e2 ^c2 d2!<)! |!f!!>(! f2 e4-!>)! | e2!<(! ^c2 d2!<)! | %102
"^ми     –     лись _______________________________         мы. ____________                                      Дух                 все       –          про         –"!f! f2!>(! (e4-!>)! | %103
 e2 ^f2)!pp! ^d2- | d4 z2 |"^ТРЕТЬ ХОРА\nA third of \nthe choir" z6 |!pp!"^F" A2 B2 c2 | %107
"^– ще           –        ни –  я,                  ны            –        –        –       –            не              внем      –       –       –    ли ___________________________" B3 c B2 | %108
!<(! e6!<)! | e2 d4 | f6- | %111
"^_______        нам! ___________________________________________________________                                                   Горь     –     кимь _______" f2!>(! e4-!>)! | %112
 e6- | e2 z4 |!pp! g4 c2- | %115
"^______                  мо         –       –       –       –         ле                   –               ни   –   ям _______________                 страж       –       –       –       –" c2 (d2 e2) | %116
 e3 g f2- | f2 e4- | %118
"^–       –        ду         –         ших _____________                     на          –          ших                     душ                                            внем     –       –" e2 d2 B2- | %119
 B2 d2 c2 | A4!>(! c2-!>)! | %121
"^–         –          ли! _________________________________________________________                                 Скорбь – ю   свя– то      –     ю ____" c2 (B4- | %122
 B2!ppp! c4- | c2) z4 |"^ВЕСЬ ХОР\nWhole choir" z4!p! E2- | %125
 E2"^r i t e n u t o  -  -  -  -  -  -  -  -" ^C2 D2 |[Q:1/4=95] (E3 F) E2- | %127
"^____      ис – то    –    ми–ли мы. __________________________________" E2 ^C2 D2 | %128
[Q:1/4=90]!>(! E3 F E2-!>)! |[Q:1/4=85] E6- |!ppp![Q:1/4=80] E6- | E2 !fermata!z4 |] %132
V:2
 z6 | z6 | z6 | z6 | z6 | z6 | !fermata!z6 || z6 | z6 | z6 | z6 | %11
"^Скорбь–ю мы ис-то-ми-ли-ся, ______________                 Пол – ны      же     –   ла–ни–ем"!pp! G4!<(! F2!<)! | %12
 A2 B2 c2 | B3 d!>(! c2-!>)! | c6- | c2!ppp! z4 |!p! B4 A2- |!<(! A2 B4!<)! | A2 B2 c2 | %19
"^ви – деть           лу        –       че-зар-ны-е   ли    –    ки, _______________                                                       Сла   –   ву  Твор–ца  и"!mf! (B3 c) A2- | %20
 A4!>(! G2-!>)! | G4 A2 | C2 D2 E2 | (F3 A) G2- |!ppp! G6- | G2 z4 | z6 | z4!p! B2- | B3 c B2 | %29
 A2 c4 | %30
"^лу–че–зар  –  ный     э        –         демь. ______________                      Сла–ву Твор – ца             и          ду    –   че   –  зар – ный  э –" d2 c2 B2- | %31
!<(! B2 c2 B2!<)! |!>(! A6-!>)! | A2 z4 |!p! A2 B2 c2 | B4 c2 | (d2 c2) B2 | c4 AB | %38
"^–демь.                                                                                         Здесь             по    –     ка  – я   –   ни   –   я                     чис   –    той         сле –" c2 z4 | %39
 z6 | z6 | z6 |!p! A6 | A4!<(! A2!<)! | A4 A2 | B6 | c6 |!>(! A4 A2!>)! | %48
"^– зо     –        ю                         смыть __________________   долж–ны           мы,  все пре-гре-ше-ни-я, что-бы  свет       –        лый"!>(! A6!>)! | %49
 A6 |!p! A6- | A6- | A2 B2 (A2 | A3 B) A2 | A2 B2!<(! A2!<)! | B3 A B2 | A2 B2 (A2- | %57
!<(! A3 B) A2!<)! | %58
"^от – но – рил   –       –       –    ся       нам                   э      –      демь! _____________        Скорбь       –     ю_______   свя   –  то – ю _____"!f! F2 G2 (A2- | %59
 A3 G) A2 |!>(! F4 (F2!>)! | FA) G4- | G6- | G2 z2!pp! (E2- | E3 F) E2- | E2!<(! (^C2 D2)!<)! | %66
!>(! F2 E4-!>)! | %67
 E2"^_____ ис –то–ми–лись ________    мы.                                                                                                                         В без–ко–неч–ность стре–"!<(! ^C2 D2!<)! | %68
!>(! F2 (E4-!>)! | E2 ^F2) ^D2- |!>(! D4 z2!>)! | z6 | z6 | z6 | z6 |!pp! G4 F2 | %76
!<(! A2 B2 c2!<)! | %77
"^– мим–ся  мы, ____________                     Ми  –  ра ____   же     –       ла  – ни –я,     страс  –  ти ______   зем–ны     –     я     для  нас" B3!>(! d c2-!>)! | %78
 c6- | c2!ppp! z4 |!p! B4 A2- | A2 B4 | A2 B2 c2 |!mf! (B3 c) A2- | A4 G2 |!>(! G4 A2!>)! | %86
 C2 (D2 E2) | %87
"^чуж    –   лы. _____________                   Ско – роль день             про–свет–лень–я  для  греш       –       –       –    ни – ков     при–" (F3 A)!ppp! G2- | %88
 G6- | G2 z4 |!pp! F4 F2 | F6 | F4 F2 | F2 E2 E2 | A6- | A4 A2 | A4 A2 | %97
"^деть?  Скорбь – ю               свя       –        то         –       –        –       –          ю _______________  здесь ____________      ис     –     то   –"!<(! A4!mf! B2-!<)! | %98
!<(! B2 _B2 A2!<)! |!<(! _A6!<)! |!f!!>(! c4 (B2!>)! | _B2)!<(! A2 _A2!<)! | %102
"^ми        –       –       –       –       –     лись                                мы. ___________"!f!!>(! (c4 B2)!>)! | %103
 ^A4!pp! B2- | B4 z2 | z6 | z6 | z6 | z6 | %109
"^Дух                                бла       –      гой,          нием      –         –"!pp! G4 F2 | %110
 A2 (B2 c2) | %111
"^–  ли _______________    нам! ________________________________________________                                                  Горь     –     кимь _______" (B3 d)!>(! c2-!>)! | %112
 c6- | c2 z4 |!pp! B4 A2- | %115
"^______                  мо         –       –       –       –          ле        –             ни         –        ям                        и ______________________    сле    –" A2 B4 | %116
 A2 B2 c2 | (B3 c) A2 | %118
"^– замь                                       страж       –       –       –       –     ду       –       –    щих                     на        –          –         –       –    ших" A4 G2- | %119
 G2 G2 A2 | (C2 D2)!>(! E2!>)! | %121
"^душ                        внем  –  ли! ____________________________________________" F3 A (G2- | %122
 G2!ppp! A4- | A2) z4 | z6 | z6 | z6 | z6 | %128
"^мы                    ис – то – ми  –   лись. __________"!>(! B,6!>)! | B,D C4 |!ppp! C6- | %131
 C2 !fermata!z4 |] %132
V:3
 x6 | x6 | x6 | x6 | x6 | x6 | x6 || x6 | x6 | x6 | x6 | x6 | x6 | x6 | x6 | x6 | x6 | x6 | x6 | %19
 x6 | x6 | x6 | x6 | x6 | x6 | x6 | x6 | x6 | x6 | x6 | x6 | x6 | x6 | x6 | x6 | x6 | x6 | x6 | %38
 x6 | x6 | x6 | x6 | F6 | x6 | x6 | x6 | x6 | x6 | x6 | x6 | x6 | x6 | A2 G2 (A2 | A3 G) A2 | %54
 A2 G2 A2 | G3 A G2 | A2 B2 x2 | x6 | x6 | x6 | x6 | x6 | x6 | x6 | x6 | x6 | x6 | x6 | x6 | x6 | %70
 x6 | x6 | x6 | x6 | x6 | x6 | x6 | x6 | x6 | x6 | x6 | x6 | x6 | x6 | x6 | x6 | x6 | x6 | x6 | %89
 x6 | x6 | x6 | x6 | x6 | x6 | x6 | x6 | x6 | x6 | x6 | x6 | x6 | x6 | x6 | x6 | x6 | x6 | x6 | %108
 x6 | x6 | x6 | x6 | x6 | x6 | x6 | x6 | x6 | x6 | x6 | x6 | x6 | x6 | x6 | x6 | x6 | x6 | x6 | %127
 x6 | x6 | x6 | x6 | x6 |] %132
V:4
 z6 | z6 | z6 | z6 | z6 | z6 | !fermata!z6 || z6 | z6 | %9
 z2"^Мы        ис–то –ми–ли– ся    скорбь  –  ю        свя    –   той,                         Пол–ны же-ла-ни-ем  ви   –"!pp! A4 | %10
 G2 (A2 B2) | A3 B A2 |!<(! D6!<)! | G4!>(! (G2-!>)! | GB) A4- |!ppp! A2 z4 |!p! E2 F2 G2 | %17
!<(! F3 A G2!<)! |!mf! D6 | %19
"^– деть  сла – ву Твор–ца       и _____             ли    –    ки ___  не – бес,                                     Сла   –  ву Твор–ца  и                ли   –" A4!>(! G2-!>)! | %20
 G2 F2 E2 | (D3 E) F2- | F6 | D4 D2- | DF!ppp! E4- | E2 z4 | z4!p! F2- | F3 G F2 | E2 G4 | D6 | %30
"^– ки      не     –     бесь  –   ны     –     е. _________________                         Сла – ву Твор – ца ______________      и             ли–ки   не –" G4 G2- | %31
!<(! G2 G3 G!<)! |!>(! F6-!>)! | F2 z4 |!p! F2 G2 A2 | G6- | G2 D4 | A2 G2 F2 | %38
"^– бес  –  ны –  е.                                                                        Здесь             по    –     ка  – я   –   ни   –   я                     чис   –    той         сле –" E4- EF | %39
 G2 z4 | z6 | z6 |!p! F6 | F4!<(! F2!<)! | F4 F2 | F6 | F6 |!>(! F4 F2!>)! | %48
"^– зо     –        ю                        пре–гре–ше –ни–я смыть долж–ны __ мы, чтоб от–во–рил–ся нам свет – лый      рай,"!>(! F6!>)! | %49
 F6 |!p! D2 E2 F2- | F3 E F2 | F2 G2 (A2- | A3 G) A2 | A2 G2!<(! F2!<)! | G3 F G2 | F4 E2- | %57
!<(! E2 D4!<)! | %58
"^чтоб  у  – ни      –        –       –  веть   нам _______________     э        –        демь! ___      Скорбь       –     ю ____       свя    –   то – ю _____"!f! D2 E2 (F2- | %59
 F3 E) F2 |!>(! D6-!>)! | D2 (D3 F) | E6- | E2 z2!pp! (E2- | E3 F) E2- | E2!<(! (^C2 D2)!<)! | %66
!>(! F2 E4-!>)! | %67
 E2"^_____ ис –то–ми–лись ________    мы.                                                                              Лишь   в без–ко    –   неч – но – е    дух"!<(! ^C2 D2!<)! | %68
!>(! F2 (E4-!>)! | E2 ^F2) ^D2- |!>(! D4 z2!>)! | z6 | z6 | z2!pp! A4 | G2 (A2 B2) | A3 B A2 | %76
!<(! D6!<)! | %77
"^наш       стре    –    мим,                        Ми–ра  же–ла –ни – я      и                           страс – ти ____   зем  –  ны     –     я     чуж  –" G4!>(! G2-!>)! | %78
 GA A4- | A2!ppp! z4 |!p! E2 F2 G2 | F3 A G2 | D6 |!mf! A4 G2- | G2 (F2 E2) |!>(! (D3 E) F2!>)! | %86
 F6 | %87
"^– лы         нам. ___________               Ско–роль для греш-ни-ков день про-свет-лень-я  веч–но–ю  бла–гость–ю ско–роль при-" D4!ppp! D2- | %88
 DF E4- | E2 z4 |!pp! E2 D2 C2 | D3 E D2 | E2 D2 C2 | D4 C2 | G2 F2 E2 | F3 G F2 | G2 F2 E2 | %97
"^деть?          Скорбь    –       –       –       –       –       –      ю          свя       –      той ______________________________            ис    –     то   –"!<(! F6!<)! | %98
!mf!!<(! E6-!<)! | E2!<(! F2 F2!<)! |!f!!>(! G6-!>)! | G2!<(! F2 F2!<)! | %102
"^ми        –       –       –       –        –        –       –      лись           мы. ___________"!f!!>(! G6-!>)! | %103
 G2 ^F2!pp! F2- | F4 z2 | z6 | z6 | %107
 z2"^Дух                                 все      –      про       –       –       –       ще       –        –      –     ни        –        я                                    внем    –"!pp! A4 | %108
 G2 (A2 B2) | (A3 B) A2 | D4 D2 | %111
"^–  ли _______________    нам! ________________________________________________                                               Горь – кимь   мо –" G4!>(! (G2-!>)! | %112
 GB) A4- | A2 z4 |!pp! E2 F2 G2 | %115
"^–  ле               –               ни   –   ям                      горь       –       –       –       –       –       –       –       кимь                                          сле  –" F3 A G2 | %116
 D6 | A4 G2 | %118
"^– замь              душ ___________                     страж     –       –       –   ду    –    щих                     на        –          –         –" G2 (F2 E2) | %119
 D3 E F2 |!>(! F6!>)! | %121
"^– ших ___________________________________   внем  –  ли! __________________                                                                Скорбь–ю  свя–" D6- | %122
 DF!ppp! E4- | E2 z4 | z6 | z6 |!p!"^r i t e n u t o  -  -  -" C2 B,2 _B,2 | %127
"^– той   ис – то    –    ми       –          –         –       лись    мы, ____________" A,2 A,2 ^G,2 | %128
!>(! A,6-!>)! | A,4 G,B, |!ppp! A,6- | A,2 !fermata!z4 |] %132
V:5
!p!"^Andante" (E3 F) E2- |!<(! E2 (^C2!>(! D2)!<)!!>)! |!<(! (E3 F) E2-!<)! | %3
"^r i t e n u t o  -  -  -  -  -  -  -  -  -  -  -  -  -  -  -  -  -  -  -  -" E2!>(! (^C2 D2)!>)! | %4
 (E3 F) E2- |!>(! E6-!>)! | E2 !fermata![ac'e']4 || z6 | z6 | z6 | z6 | z6 | z6 | z6 | z6 | %15
!p! [A,CE]4- [A,CE] z | z6 | z6 | z6 | z6 | z6 | z6 | z6 | z6 | z6 | [G,B,]4- [G,B,] z | %26
!p! (D2 E2 F2 | G2 A2 B2 | c2 d2 e2 | f2 g2 a2 | b2 c'2 d'2 | e'2 f'2 g'2) | [af'a']6 | x6 | %34
!p! (a'2 g'2 f'2 | e'2 d'2 c'2 | b2 a2 g2 | f2 e2 d2 | c2 B2 A2 | G2 F2 E2 | %40
 D2 C) [Afa] [Afa]!//![Afa] | !//![Afa]2 !//![Afa]2 !//![Afa]2 | !//![Afa]2 !//![Afa]2 !//![Afa]2 | %43
 !//![Bfab]2 !//![Bfab]2!<(! !//![Bfab]2!<)! | !//![cfac']2 !//![cfac']2 !//![cfac']2 | %45
 !//![dabd']2 !//![dabd']2 !//![dabd']2 |!8va(! !//![fac'f']2 !//![fac'f']2 !//![fac'f']2 | %47
 !//![dabd']2 !//![dabd']2 !//![dabd']2!8va)! |!>(! !//![cac']2 !//![cac']2 !//![cac']2!>)! | %49
 !//![fab]2 !//![fab]2 !//![fab]2 |!p! !//![Afa]2 !//![Afa]2 !//![Afa]2 | %51
 !//![Bfab]2 !//![Bfab]2 !//![Bfab]2 | !//![cfac']2 !//![cfac']2 !//![cfac']2 | %53
 !//![dfad']2 !//![dfad']2 !//![dfad']2 | !//![fac'f']2 !//![fac'f']2 !//![fac'f']2 | %55
!<(! !//![dfad']2 !//![dfad']2 !//![dfad']2!<)! | !//![cfc']2 !//![Bfb]2 !//![cfc']2 | %57
 !//![Bfb]3/2 [Bfb][Bfb][Bfb]!//![Bfb]3/2 |!f! ([fa]2 [eg]2 [df]2 | [ce]2 [Bd]2 [Ac]2) | %60
!>(! !//![Bdb]2 (3[Bdb][Bdb][cdc'] !//![Bdb]2!>)! | !//![Bdb]2 !//![Bdb]2 !//![Bdb]2 | [Beb]6- | %63
!pp! [Beb]4- [Beb] z | z6 | z2!<(! (^C2 D2!<)! |!>(! F2 E2) z2!>)! | z2 (^C2 D2 | F2 E4- | %69
 E4) ^D2 |!pp! [B^db]6- | [Bdb]2- [Bdb] z z2 |!p!!8va(! (a2 b2 c'2 | b3 c' b2) | e'6 | (e'2 d'4) | %76
!<(! [df']6!<)! |!<(! (f'2 e'4-!<)! |!>(! e'6-!>)! |!pp! e'2) z4 | ([bg']4 [ac']2- | %81
 [ac']2 d'2 e'2) |!<(! (e'3 g' f'2-!<)! | f'2 e'4) | (e'2 d'2!>(! b2-!>)! | b2 d'2 c'2) | %86
 (a4 c'2- | c'2 b4- | b6- |!pp! b2)!8va)! z4 |!p! [Aa]6- | [Aa]6 | [Aa]6- | ([Aa]2 [Gg]4) | %94
 [Gg]2 [Ff]2 [Ee]2 | [Ff]3 [Gg] [Ff]2 | ([Gg]2 [Ff]2 [Ee]2 | [Ff]6) |!<(! [Ee]6-!<)! | %99
!<(! [Ee]2 ([^C^c]2 [Dd]2!<)! |!f!!>(! [Ff]2 [Ee]4-!>)! | [Ee]2)!<(! ([^C^c]2 [Dd]2!<)! | %102
!f!!>(! [Ff]2 [Ee]4-!>)! |!>(! [Ee]2 [^F^f]2 [^D^d]2)!>)! |!p!!>(! [B^db]6-!>)! | %105
 [Bdb]2- [Bdb] z z2 | %106
!ppp!!8va(! [e'a']/[c'a']/ [e'a']/[c'a']/ [e'a']/[c'a']/ [e'a']/[c'a']/ [e'a']/[c'a']/ [e'a']/[c'a']/ | %107
 [d'g']/[bg']/ [d'g']/[bg']/ [d'g']/[bg']/ [d'g']/[bg']/ [d'g']/[bg']/ [d'g']/[bg']/ | %108
!<(! [e'g']/[bg']/ [e'g']/[bg']/ [e'g']/[bg']/ [e'g']/[bg']/ [e'g']/[bg']/ [e'g']/[bg']/!<)! | %109
 [d'g']/[bg']/ [d'g']/[bg']/ [d'f']/[af']/ [d'f']/[af']/ [d'f']/[af']/ [d'f']/[af']/ | %110
!p! [c'f']/[af']/ [c'f']/[af']/ [c'f']/[af']/ [c'f']/[af']/ [c'f']/[af']/ [c'f']/[af']/ | %111
 [bf']/[gf']/ [bf']/[gf']/ [bf']/[gf']/ [bf']/[gf']/ [bf']/[gf']/ [bf']/[gf']/ | %112
 [c'e']/[ge']/ [c'e']/[ge']/ [c'e']/[ge']/ [c'e']/[ge']/ [c'e']/[ge']/ [c'e']/[ge']/ | %113
 [c'e']/[ae']/ [c'e']/[ae']/ [ac'e']!8va)! z z2 | G4 C2- | C2 (D2 E2 | E3 G F2- | F2) E4 | %118
 (E2 D2 B,2- | B,2 D2 C2) |!>(! A,4 C2-!>)! | C2 B,4- |!>(! B,2 C4!>)! | !>![Ace]4- [Ace] z | %124
!p! (E3 F) E2- | E2"^r i t e n u t o  -  -  -  -  -  -  -  -" (^C2 D2) | (E3 F) E2- | E2 (^C2 D2) | %128
!>(! (E3 F) E2-!>)! | E6- |!ppp! E6 | !fermata![ac'e']6 |] %132
V:6
 z6 | (C,2 B,,4) | G,4- G, z | z2 ^F,2 =F,2 | A,6- | A,4 G,B, | %6
 [E,A,] z[K:treble] !fermata![Ae]4 || z6 | z6 | %9
"^__________________________________________\nMystery Chorus\nTo Vladimir Vasilievich Stasov\nBased on text derived from Dante's \"Purgatory\"\nCesar A. Cui, 1871\nSt, Petersburg: V. Bessel and Co., 1875" z6 | %10
 z6 | z6 | z6 | z6 | z6 | [A,,E,]4- [A,,E,] z | z6 | z6 | z6 | z6 | z6 | z6 | z6 | z6 | z6 | %25
!p! [E,,B,,E,]4- [E,,B,,E,] z | z6 | z6 | z6 | z4 (a2- | a3 g f2) | (g2 a2 b2) | %32
 z [F,,A,,F,] [F,,A,,F,] !//![F,,A,,F,]3 | !//![F,,A,,F,]2 !//![F,,A,,F,]2 !//![F,,A,,F,]2 | %34
 (a2 b2 a2 | g2 f4- | f6- | f) z z4 | z6 | z6 | z3[K:bass]!pp! [F,,A,,F,][F,,A,,F,]!//![F,,A,,F,] | %41
 !//![F,,A,,F,]2 !//![F,,A,,F,]2 !//![F,,A,,F,]2 | (F2 E2 D2- | D3 E D2) | (C2 B,2 A,2- | %45
 A,3 B, A,2-) | (A,2 B,2 C2 | B,3 C B,2) | (C2 D2 F2- | F3 E F2) | %50
 !//![D,,F,,C,]2 !//![D,,F,,C,]2 !//![D,,F,,C,]2 | %51
 !//![D,,F,,D,]2 !//![D,,F,,D,]2 !//![D,,F,,D,]2 | %52
 !//![D,,F,,C,]2 !//![D,,F,,C,]2 !//![D,,F,,C,]2 | %53
 !//![D,,F,,B,,]2 !//![D,,F,,B,,]2 !//![D,,F,,B,,]2 | %54
 !//![D,,F,,C,]2 !//![D,,F,,C,]2 !//![D,,F,,C,]2 | %55
 !//![D,,F,,B,,]2 !//![D,,F,,B,,]2 !//![D,,F,,B,,]2 | %56
 !//![D,,A,,D,]2 !//![D,,A,,D,]2 !//![D,,A,,D,]2 | %57
 !//![D,,A,,D,]2 (3[D,,A,,D,][D,,A,,D,][D,,A,,D,] !//![D,,A,,D,]2 | %58
 !//![D,,C,D,]2 !//![D,,C,D,]2 !//![D,,C,D,]2 | !//![D,,C,D,]2 !//![D,,C,D,]2 !//![D,,C,D,]2 | %60
 !//![B,,,F,,B,,]2 !//![B,,,F,,B,,]2 !//![B,,,F,,B,,]2 | %61
 !//![B,,,F,,B,,]2 !//![B,,,F,,B,,]2 !//![B,,,F,,B,,]2 | [E,,B,,E,]6- | [E,,B,,E,]4- [E,,B,,E,] z | %64
 z6 |!p! (C,2 B,,4 | C,6) | z2 (C,2 B,,2 | C,6- | C,4) z2 | [B,^F]6- | [B,F]2- [B,F] z z2 | z6 | %73
!pp! [E,,E,]4 [D,,D,]2- | [D,,D,]4 [C,,C,]2- | [C,,C,]6 | [B,,,B,,]6- | [B,,,B,,]4 [A,,,A,,]2- | %78
 [A,,,A,,]6- | [A,,,A,,E,]4- [A,,,A,,E,] z |!p! z4!pp! [E,,,E,,]2- | [E,,,E,,]6 | %82
 [F,,,F,,]2!mf! [G,,,G,,]4- | [G,,,G,,]2 z2!pp! [A,,,A,,]2- |!mf! [A,,,A,,]4 ([B,,,B,,]2 | %85
 [C,,C,]6-) |!p! [C,,C,]6- | [C,,C,]2 ([D,,D,]2 [E,,E,]2-) | (([E,,E,]6 | %89
 [E,,B,,E,G,B,]4-)) [E,,B,,E,G,B,] z | (C2 B,2 A,2 | B,3 C B,2) | (C2 B,2 A,2 | B,4 A,2) | %94
 (E2 D2 C2 | D3 E D2) | (E2 D2 C2 | D6) | %98
 [C,G,C]2 [C,,G,,]/C,/ [C,,G,,]/C,/ [C,,G,,]/C,/ [C,,G,,]/C,/ | %99
 F,,/C,/ F,,/C,/ z F,,/C,/ F,,/C,/ F,,/C,/ | %100
 [C,,G,,]/C,/ [C,,G,,]/C,/ [C,,G,,]/C,/ [C,,G,,]/C,/ [C,,G,,]/C,/ [C,,G,,]/C,/ | %101
 [C,,G,,]/C,/ [C,,G,,]/C,/ F,,/C,/ z F,,/C,/ F,,/C,/ | %102
 [C,,G,,]/C,/ [C,,G,,]/C,/ [C,,G,,]/C,/ [C,,G,,]/C,/ [C,,G,,]/C,/ [C,,G,,]/C,/ | %103
 [C,,G,,]/C,/ [C,,G,,]/C,/ [C,,^F,,]/C,/ [C,,F,,]/C,/ [B,,,F,,]/B,,/ [B,,,F,,]/B,,/ | [B,^F]6- | %105
 [B,F]2- [B,F] z z2 | (A,2 B,2 C2 | B,3 C B,2) | E6- | (E2 D4) | F6 | (F2 E4) | [CE]6 | %113
{/[A,,E,]} !>![A,CE]4- [A,CE] z |!pp! (E,2 F,2!pp! G,2 | F,3 A, G,2) | D,6 | A,4 G,2- | %118
 (G,2 F,2 E,2 | D,3 E, F,2) | (C,2 D,2 E,2 | D,6) | (D,F, E,4) | !>![A,E]4- [A,E] z | z6 | %125
 (C,2 B,,4) | [C,,C,]4- [C,,C,] z | z2 (^F,2 =F,2 | E,6-) | E,6- | E,6 | !fermata![Ae]6 |] %132
V:7
 x6 | (A,2 _A,4) | (C2 B,2 _B,2 | A,4) x2 | B,6 | B,D C4- | C!pp! z x4 || x6 | x6 | x6 | x6 | x6 | %12
 x6 | x6 | x6 | x6 | x6 | x6 | x6 | x6 | x6 | x6 | x6 | x6 | x6 | x6 | x6 | x6 | x6 | x6 | z4 a2 | %31
 (d'3 c') d'2 | z!pp! [Afa] [Afa] !//![Afa]3 | !//![Afa]2 !//![Afa]2 !//![Afa]2 | f'2 d'3 c' | %35
 d'2 a3 g | a2 z2 z2 | x6 | x6 | x6 | x6 | x6 | x6 | x6 | x6 | x6 |!8va(! x6 | x6!8va)! | x6 | %49
 (A2 B2 d2) | x6 | x6 | x6 | x6 | x6 | x6 | x6 | x6 | !//!A2 !//!A2 !//!A2 | !//!F2 (3FFE !//!F2 | %60
 x6 | x6 | x6 | x6 | x6 | x6 | C4 B,2 | _B,2 A,2 _A,2 | G,6 | x6 | x6 | x6 |!8va(! x6 | z2 (a4 | %74
 g2 a2 b2 | g4 f2) | (a2 b2 c'2 | b3 d' c'2- | c'6- | c'2) z4 | (e2 f2 g2 | f3 a g2) | (a2 b2 c'2 | %83
 b3 c' a2 | a4 g2- | g4 a2) | f6 | f3 a g2- | g6- | g2!8va)! z4 | (e2 d2 c2 | d3 e d2) | %92
 (e2 d2 c2 | d4 c2- | c6-) | c6 | c6- | c4 B2- | (B2 _B2 A2 | _A6) | [Gc]4 B2 | _B2 A2 _A2 | %102
 [Gc]4 B2 | ^A4 B2 | x6 | x6 |!8va(! x6 | x6 | x6 | x6 | x6 | x6 | x6 | x3!8va)! x3 | B,4 A,2- | %115
 A,2 B,4 | (A,2 B,2 C2 | B,3 C A,2-) | A,4 G,2- | G,4 (A,2 | F,4) F,2- | F,3 A, G,2- | G,2 A,4 | %123
 x6 | x6 | (A,2 _A,4 | G,4- G,) z | A,4 ^G,2 | B,6 | B,D C4- | C6 | x6 |] %132
V:8
 x6 | F,,6 | [C,,C,]4- [C,,C,] z | z2 [D,,A,,]4 | E,6- | E,6 | x2[K:treble] x4 || x6 | x6 | x6 | %10
 x6 | x6 | x6 | x6 | x6 | x6 | x6 | x6 | x6 | x6 | x6 | x6 | x6 | x6 | x6 | x6 | x6 | x6 | x6 | %29
 x6 | x6 | x6 | x6 | x6 | x6 | x6 | x6 | x6 | x6 | x6 | x3[K:bass] x3 | x6 | x6 | x6 | x6 | x6 | %46
 x6 | x6 | x6 | x6 | x6 | x6 | x6 | x6 | x6 | x6 | x6 | x6 | x6 | x6 | x6 | x6 | x6 | x6 | x6 | %65
 (F,,6 | C,,6) | x2 (F,,4 | (C,,6) | C,,4) [B,,,B,,]2- | [B,,,B,,]2 z4 | x6 | x6 | x6 | x6 | x6 | %76
 x6 | x6 | x6 | [A,CE]4- [A,CE] z | x6 | x6 | x6 | x6 | x6 | x6 | x6 | x6 | x6 | x6 | F,6- | %91
 F,2 x4 | F,6- | (F,2 E,4) | [D,A,]6- | [D,A,]2 x4 | A,6- | (A,2 G,4) | x6 | x6 | x6 | x6 | x6 | %103
 x6 | x6 | x6 | x6 | z2 A,4 | (G,2 A,2 B,2 | A,3 B, A,2) | (A,2 B,2 C2 | B,3 D C2) | (G,B, A,4) | %113
 x6 | z2 z2 E,,,/E,,/ E,,,/E,,/ | E,,,/E,,/ E,,,/E,,/ E,,,/E,,/ E,,,/E,,/ E,,,/E,,/ E,,,/E,,/ | %116
 E,,,/E,,/ E,,,/E,,/ E,,,/E,,/ E,,,/E,,/ E,,,/E,,/ E,,,/E,,/ | %117
 E,,,/E,,/ E,,,/E,,/ E,,,/E,,/ E,,,/E,,/ E,,,/E,,/ E,,,/E,,/ | %118
 E,,,/E,,/ E,,,/E,,/ E,,,/E,,/ E,,,/E,,/ E,,,/E,,/ E,,,/E,,/ | %119
 E,,,/E,,/ E,,,/E,,/ E,,,/E,,/ E,,,/E,,/ E,,,/E,,/ E,,,/E,,/ | %120
 E,,,/A,,,/ E,,,/A,,,/ E,,,/A,,,/ E,,,/A,,,/ E,,,/A,,,/ E,,,/A,,,/ | %121
 E,,,/A,,,/ E,,,/A,,,/ E,,,/A,,,/ E,,,/A,,,/ E,,,/A,,,/ E,,,/A,,,/ | %122
 E,,,/A,,,/ E,,,/A,,,/ A,,,/A,,/ A,,,/A,,/ A,,,/A,,/ A,,,/A,,/ | x6 | x6 | F,,6 | x6 | %127
 z2 !>![D,,A,,]4 | [A,,,E,,A,,]6- | [A,,,E,,A,,]6- | [A,,,E,,A,,]6 | x6 |] %132
V:9
 x6 | x6 | x6 | x6 | [A,,,E,,A,,]6- | [A,,,E,,A,,]6- | [A,,,E,,A,,] z[K:treble] x4 || x6 | x6 | %9
 x6 | x6 | x6 | x6 | x6 | x6 | x6 | x6 | x6 | x6 | x6 | x6 | x6 | x6 | x6 | x6 | x6 | x6 | x6 | %28
 x6 | x6 | x6 | x6 | x6 | x6 | x6 | x6 | x6 | x6 | x6 | x6 | x3[K:bass] x3 | x6 | x6 | x6 | x6 | %45
 x6 | x6 | x6 | x6 | x6 | x6 | x6 | x6 | x6 | x6 | x6 | x6 | x6 | x6 | x6 | x6 | x6 | x6 | x6 | %64
 x6 | x6 | x6 | x6 | x6 | ^F,4 z2 | x6 | x6 | x6 | x6 | x6 | x6 | x6 | x6 | x6 | x6 | x6 | x6 | %82
 x6 | x6 | x6 | x6 | x6 | x6 | x6 | x6 | x6 | z2 .[F,,C,]2 z2 | x6 | x6 | x6 | z2 .[D,,A,,]2 z2 | %96
 (D,6 | C,6) | x6 | x6 | x6 | x6 | x6 | x6 | x6 | x6 | x6 | x6 | x6 | G,4 F,2 | (D,6 | G,6) | x6 | %113
 x6 | x6 | x6 | x6 | x6 | x6 | x6 | x6 | x6 | x6 | x6 | x6 | x6 | x6 | x6 | (A,6- | A,4 G,B, | %130
 A,6) | x6 |] %132
V:10
 x6 | x6 | x6 | x6 | x6 | x6 | x6 || x6 | x6 | x6 | x6 | x6 | x6 | x6 | x6 | x6 | x6 | x6 | x6 | %19
 x6 | x6 | x6 | x6 | x6 | x6 | x6 | x6 | x6 | x6 | x6 | x6 | x6 | x6 | x6 | x6 | x6 | x6 | x6 | %38
 x6 | x6 | x6 | x6 | x6 | x6 | x6 | x6 |!8va(! x6 | x6!8va)! | x6 | x6 | x6 | x6 | x6 | x6 | x6 | %55
 x6 | x6 | x6 | x6 | x6 | x6 | x6 | x6 | x6 | x6 | (A,2 _A,4 | G,6) | x6 | (C4 B,2 | ^F4 B,2) | %70
 x6 | x6 |!8va(! x6 | x6 | x6 | a3 b a2 | x6 | g6- | gb a4- | a2 z4 | x6 | z2 b4 | d6 | a4 g2- | %84
 g2 f2 e2 | d3 e f2 | (c2 d2 e2 | d6) | df e4- | e2!8va)! z4 | x6 | x6 | x6 | x6 | x6 | x6 | x6 | %97
 x6 | x6 | x6 | x6 | x6 | x6 | x6 | x6 | x6 |!8va(! x6 | x6 | x6 | x6 | x6 | x6 | x6 | %113
 x3!8va)! x3 | x6 | x6 | x6 | x6 | x6 | x6 | x6 | x6 | x6 | x6 | x6 | x6 | x6 | x6 | x6 | x6 | x6 | %131
 x6 |] %132

